X:38
T:Lass in Yon Town,The. Dix.38
M:C
L:1/8
Q:1/4=100
S:Anon. MS dated 1811, from Dixon collection, Holton le Moor, Lincs.
R:Song
C:(Burns)
O:England;Lincolnshire;Holton le Moor
Z:vmp.R.Greig 2012 <http://www.village-music-project.org.uk>
K:D
F|D> d d> A {G}F2D> A|F A D A F> E E> d|!
w:I wat ye wha’s in yon town, Ye see the e’en-ing sun up-on? The
d> c d> A {G}F2 D> A|F> A E> G F D D|!
w: dear-est maids in yon town his sett-ing beams do shine up-on.
A|F D A D B D A> D|F D B D F> E E> G|!
w: Now hap-ly down yon gay green shaw she wan-ders by that spread-ing tree How
F D A D B D A> D|F A E G F D D A|!
w:blest ye flowers that round her blaw ye catch the glanc-es o’ her ‘ee. How
F D A D B D A> D|F D A D F> E E> G|!
w:blest ye birdsn that round her sing and wan-tons in the bloom-ing year. But
F D A D B G Hd> B|A> F E> G F> D D||
w:doub-ly wel-come be the Spring, the sea-son to my Jean-nie dear.
W:%
W:The sun blinks blithe in you town,
W:Amang the broomy braes so green
W:But my delight’s in yon town,
W:And dearest pleasure is my Jean.
W:Without my fair, not a’ the charms
W:Of paradise could yield me joy.
W:But gie me Jenny in my arms
W:And welcome Lapland’s dreary sky.
W:My cave would be a lovers bower,
W:Tho’ raging Winter rent the air;
W:And she a lovely little flower,
W:That I wad tent and shelter there.
W:%
W:O sweet is she in yon town,
W:The sinkin suns gaun down upon;
W:The dearest maids in yon town,
W:His setting beams e’er shone upon.
W:If angry fate be sworn my foe,
W:And suffering I am doom’d to bear,
W:I’d careless quit aught here below,
W:But spare! O spare my Jeanie dear!
W:For while life’s dearest blood runs warm,
W:My thoughts fra’ her shall ne’er depart;
W:For as most lovely is her form
W:She has the kindest truest heart.

